X:1

T:Who Are You?

M:2/4
L:1/8

R:Air

N:”With spirit”

S:O’Neill – Music of Ireland (1903), No. 239

Z:AK/Fiddler’s Companion

K:G

G | AA (Bd) | (cB) AG | (ED/)E/ GG | G3 (B/d/) | ee dg |

(B>A G)(B/c/) | dd (e/>d/)B/G/ | A3d | ee dg | (BA>G G)(B/d/) |

cB “tr”(AB/)G/ | E3 (F/G/) | AA Bd | cB AG | E(D/E/) GG | G3 ||

 

WHO CAN HELP IT NOW?  English, Reel. England, Northumberland. G Major. Standard. AABB. Seattle (William Vickers), 1987, Part 3; No. 402.

 

WHO HATH HIS FANCY PLEAS'D. English, Air (irregular meter). G Major. Standard. One part. The tune is "Wilhelmus van Nassauen," which has remained the Dutch national anthem to the present day. The words have been attributed to Sir Philip Sidney. Kines, 1964; pg. 76.

 


WHO HIT NELLIE WITH THE STOVE PIPE?  American, Reel. USA, southwestern Pa. D Major. Standard tuning. AB. The first part is shared with the tunes "Redman's Reel,” "Polka Reel" (Cazden), and an untitled breakdown in Christeson (1973, No. 98, pg. 68). Source for notated version: Walter Neal (fiddler from Armstrong County, Pa., 1952) [Bayard]. Bayard (Dance to the Fiddle), 1981; No. 392, pg. 375.

 

WHO LEARNED YOU TO DANCE AND A TOWDLE. AKA ‑ "Who Learned You to Dance, Babbity Bowster {bolster}."AKA and see "Country Bumpkin."  Scottish, Reel. D Major. Standard tuning. AB. The tune, which Emmerson (1972) calls "one of the most common of Scottish tunes...yet on the lips of every Lowland child," first appears under this name in the Skene Manuscript (c. 1620). It was later collected from tradition, from girls playing on the streets of Glasgow, and printed with words beginning "Who learned you to dance, Babbity Bowster {bolster}, Babbity Bowster." The tune was associated with the cushion dance, an old kissing dance performed with a pillow (See note for "Babbity Bowster"). Alburger (Scottish Fiddlers and Their Music), 1983; Ex. 2, pgs. 16‑17.

 

WHO LIST TO LEAD A SOLDIER'S LIFE. English, Country Dance Tune (6/4 time). A Major. Standard tuning. AB. This air, from the latter sixteenth century, appears in Playford's Dancing Master of 1650. As was usual for popular tunes, it was later used as the vehicle for several songs. Chappell (Popular Music of the Olden Times), Vol. 1, 1859; pg. 303.

